X: 10
T: The New Custom House
R: reel
M: 4/4
L: 1/8
K: Dmix
AD~D2 FGAB|cAGE CDEG|AD~D2 FGAB|~c3e dcAG|
ADDE FGAB|cAGE CDEG|ADdD FGAB|cAGE D3G:|
|:Ad~d2 Adfd|ec~c2 Gcec|Ad~d2 Adfd|ed^cd eddc|
Ad~d2 adfd|ec~c2 efge|a3g ed^cd|ea~a2 efdB:|


Tune 175	Setting 12821

